Numix/16/emotes/face-devilish.svg

<?xml version="1.0" encoding="UTF-8" standalone="no"?>
<svg
   xmlns:dc="http://purl.org/dc/elements/1.1/"
   xmlns:cc="http://creativecommons.org/ns#"
   xmlns:rdf="http://www.w3.org/1999/02/22-rdf-syntax-ns#"
   xmlns:svg="http://www.w3.org/2000/svg"
   xmlns="http://www.w3.org/2000/svg"
   xmlns:sodipodi="http://sodipodi.sourceforge.net/DTD/sodipodi-0.dtd"
   xmlns:inkscape="http://www.inkscape.org/namespaces/inkscape"
   width="16px"
   height="16px"
   viewBox="0 0 12 12"
   version="1.1"
   id="svg3042"
   inkscape:version="0.91 r"
   sodipodi:docname="face-devilish.svg">
  <metadata
     id="metadata3061">
    <rdf:RDF>
      <cc:Work
         rdf:about="">
        <dc:format>image/svg+xml</dc:format>
        <dc:type
           rdf:resource="http://purl.org/dc/dcmitype/StillImage" />
      </cc:Work>
    </rdf:RDF>
  </metadata>
  <defs
     id="defs3059" />
  <sodipodi:namedview
     pagecolor="#ffffff"
     bordercolor="#666666"
     borderopacity="1"
     objecttolerance="10"
     gridtolerance="10"
     guidetolerance="10"
     inkscape:pageopacity="0"
     inkscape:pageshadow="2"
     inkscape:window-width="640"
     inkscape:window-height="480"
     id="namedview3057" />
  <g
     id="surface1">
    <path
       style=" stroke:none;fill-rule:evenodd;fill:rgb(100%,40%,36.078431%);fill-opacity:1;"
       d="M 1.957031 3.1875 L 1.332031 1.9375 L 3.207031 2.25 Z M 1.957031 3.1875 "
       id="path3045" />
    <path
       style=" stroke:none;fill-rule:evenodd;fill:rgb(100%,40%,36.078431%);fill-opacity:1;"
       d="M 10.042969 3.1875 L 10.667969 1.9375 L 8.792969 2.25 Z M 10.042969 3.1875 "
       id="path3047" />
    <path
       style=" stroke:none;fill-rule:nonzero;fill:rgb(100%,40%,36.078431%);fill-opacity:1;"
       d="M 11.25 6 C 11.25 8.484375 8.898438 10.5 6 10.5 C 3.101562 10.5 0.75 8.484375 0.75 6 C 0.75 3.515625 3.097656 1.5 6 1.5 C 8.902344 1.5 11.25 3.515625 11.25 6 Z M 11.25 6 "
       id="path3049" />
    <path
       style=" stroke:none;fill-rule:nonzero;fill:rgb(38.823529%,38.823529%,38.823529%);fill-opacity:1;"
       d="M 7.875 7.125 C 7.738281 7.6875 6.972656 8.066406 6 8.066406 L 6 8.71875 C 7.117188 8.71875 8.066406 8.066406 8.25 7.125 Z M 7.875 7.125 "
       id="path3051" />
    <path
       style=" stroke:none;fill-rule:nonzero;fill:rgb(38.823529%,38.823529%,38.823529%);fill-opacity:1;"
       d="M 3.570312 4.289062 C 3.382812 4.433594 3.253906 4.664062 3.253906 4.921875 C 3.253906 5.363281 3.613281 5.71875 4.050781 5.71875 C 4.460938 5.71875 4.789062 5.414062 4.839844 5.019531 Z M 3.570312 4.289062 "
       id="path3053" />
    <path
       style=" stroke:none;fill-rule:nonzero;fill:rgb(38.823529%,38.823529%,38.823529%);fill-opacity:1;"
       d="M 8.398438 4.304688 L 7.113281 5.050781 C 7.171875 5.429688 7.5 5.71875 7.894531 5.71875 C 8.335938 5.71875 8.691406 5.363281 8.691406 4.921875 C 8.691406 4.671875 8.578125 4.453125 8.398438 4.304688 Z M 8.398438 4.304688 "
       id="path3055" />
  </g>
</svg>

<svg xmlns="http://www.w3.org/2000/svg" width="16" height="16" viewBox="0 0 12 12">
 <g>
  <path d="m 1.957 3.188 l -0.625 -1.25 l 1.875 0.313 m -1.25 0.938" style="fill:#ff665b;fill-opacity:1;stroke:none;fill-rule:evenodd"/>
  <path d="m 10.04 3.188 l 0.625 -1.25 l -1.875 0.313 m 1.25 0.938" style="fill:#ff665b;fill-opacity:1;stroke:none;fill-rule:evenodd"/>
  <path d="m 11.25 6 c 0 2.484 -2.352 4.5 -5.25 4.5 c -2.898 0 -5.25 -2.02 -5.25 -4.5 c 0 -2.484 2.348 -4.5 5.25 -4.5 c 2.902 0 5.25 2.02 5.25 4.5 m 0 0" style="fill:#ff665b;fill-opacity:1;stroke:none;fill-rule:nonzero"/>
  <path d="m 7.875 7.125 c -0.137 0.563 -0.902 0.941 -1.875 0.941 l 0 0.652 c 1.117 0 2.066 -0.652 2.25 -1.594 m -0.375 0" style="fill:#626262;fill-opacity:1;stroke:none;fill-rule:nonzero"/>
  <path d="m 3.57 4.289 c -0.188 0.145 -0.316 0.375 -0.316 0.633 c 0 0.441 0.359 0.797 0.797 0.797 c 0.41 0 0.738 -0.305 0.789 -0.699 m -1.27 -0.73" style="fill:#626262;fill-opacity:1;stroke:none;fill-rule:nonzero"/>
  <path d="m 8.398 4.305 l -1.285 0.746 c 0.059 0.379 0.387 0.668 0.781 0.668 c 0.441 0 0.797 -0.355 0.797 -0.797 c 0 -0.25 -0.113 -0.469 -0.293 -0.617 m 0 0" style="fill:#626262;fill-opacity:1;stroke:none;fill-rule:nonzero"/>
 </g>
</svg>
